icons/icn_porDos.svg

<svg width="23.999" xmlns="http://www.w3.org/2000/svg" height="23.999" id="screenshot-e387bb83-ae60-800e-8006-366ae6e63e4d" viewBox="0 0 23.999 23.999" xmlns:xlink="http://www.w3.org/1999/xlink" fill="none" version="1.1"><g id="shape-e387bb83-ae60-800e-8006-366ae6e63e4d"><g class="frame-container-wrapper"><g class="frame-container-blur"><g class="frame-container-shadows"><g fill="none"><g class="fills" id="fills-e387bb83-ae60-800e-8006-366ae6e63e4d"><rect rx="0" ry="0" x="0" y="0" width="23.99874526245185" height="23.998741483320828" transform="matrix(1, 0, 0, 1, 0, 0)" class="frame-background"/></g><g class="frame-children"><g id="shape-e387bb83-ae60-800e-8006-366ae6e63e6d" rx="0" ry="0" style="fill: rgb(0, 0, 0);"><g id="shape-e387bb83-ae60-800e-8006-366ae6e63e6e"><g class="fills" id="fills-e387bb83-ae60-800e-8006-366ae6e63e6e"><path d="M4.479540824890137,8.85986328125C4.228808403015137,8.85986328125,3.947802782058716,8.9586181640625,3.636523485183716,9.1561279296875C3.211230516433716,9.4522705078125,2.998584032058716,9.80908203125,2.998584032058716,10.226806640625C2.998584032058716,10.4774169921875,3.059619188308716,10.731689453125,3.180957078933716,10.9898681640625C3.309863328933716,11.248046875,3.461962938308716,11.5101318359375,3.636523485183716,11.77587890625L5.550097465515137,14.5550537109375L3.636523485183716,17.3115234375C3.461718797683716,17.5772705078125,3.309863328933716,17.8431396484375,3.180957078933716,18.10888671875C3.059375047683716,18.3746337890625,2.998584032058716,18.6328125,2.998584032058716,18.8834228515625C2.998584032058716,19.301025390625,3.211230516433716,19.657958984375,3.636523485183716,19.9541015625C3.947802782058716,20.1514892578125,4.228808403015137,20.250244140625,4.479540824890137,20.250244140625C4.790820121765137,20.250244140625,5.071825981140137,20.125,5.322314262390137,19.8743896484375C5.580615043640137,19.6162109375,5.808154106140137,19.3238525390625,6.005663871765137,18.997314453125L7.418261528015137,17.083740234375L8.784960746765137,18.997314453125C9.020312309265137,19.3162841796875,9.259570121765137,19.604736328125,9.502490043640137,19.8629150390625C9.745654106140137,20.12109375,10.030322074890137,20.250244140625,10.356738090515137,20.250244140625C10.607470512390137,20.250244140625,10.888476371765137,20.151611328125,11.199755668640137,19.9541015625C11.625048637390137,19.66552734375,11.837695121765137,19.30859375,11.837695121765137,18.8834228515625C11.837695121765137,18.6328125,11.772997856140137,18.3746337890625,11.643847465515137,18.10888671875C11.522509574890137,17.8431396484375,11.374316215515137,17.5772705078125,11.199755668640137,17.3115234375L9.172167778015137,14.5550537109375L11.199755668640137,11.77587890625C11.382128715515137,11.5252685546875,11.533984184265137,11.2633056640625,11.655322074890137,10.9898681640625C11.776659965515137,10.716552734375,11.837695121765137,10.45458984375,11.837695121765137,10.2039794921875C11.837695121765137,9.7939453125,11.625048637390137,9.444580078125,11.199755668640137,9.1561279296875C10.911181449890137,8.9586181640625,10.622607231140137,8.85986328125,10.334033012390137,8.85986328125C10.007616996765137,8.85986328125,9.722704887390137,8.9852294921875,9.479784965515137,9.23583984375C9.236865043640137,9.4864501953125,9.005175590515137,9.771240234375,8.784960746765137,10.090087890625L7.418017387390137,12.003662109375L6.005663871765137,10.090087890625C5.800585746765137,9.7711181640625,5.572802543640137,9.486328125,5.322314262390137,9.23583984375C5.071581840515137,8.9852294921875,4.790820121765137,8.85986328125,4.479540824890137,8.85986328125Z" style="font-family: Dangrek; white-space: pre; stroke-width: 0.396875; stroke-linecap: round; stroke-linejoin: round; fill: rgb(0, 0, 0);"/></g></g><g id="shape-e387bb83-ae60-800e-8006-366ae6e63e6f"><g class="fills" id="fills-e387bb83-ae60-800e-8006-366ae6e63e6f"><path d="M17.360401153564453,4.212646484375C16.844776153564453,4.212646484375,16.401416778564453,4.272216796875,16.030323028564453,4.3905029296875C15.659228324890137,4.5091552734375,15.344775199890137,4.663818359375,15.086962699890137,4.8544921875C14.824023246765137,5.0556640625,14.615038871765137,5.26953125,14.460497856140137,5.496337890625C14.300829887390137,5.7335205078125,14.176806449890137,5.970703125,14.089404106140137,6.207763671875C14.001757621765137,6.4449462890625,13.942431449890137,6.669189453125,13.911425590515137,6.880615234375C13.880663871765137,7.0867919921875,13.865283012390137,7.259521484375,13.865283012390137,7.398681640625C13.865283012390137,7.702880859375,13.973437309265137,7.952880859375,14.189990043640137,8.1488037109375C14.406542778015137,8.339599609375,14.689990043640137,8.4349365234375,15.040575981140137,8.4349365234375C15.313769340515137,8.4349365234375,15.574267387390137,8.3421630859375,15.821581840515137,8.156494140625C16.074268341064453,7.970947265625,16.200489044189453,7.6925048828125,16.200489044189453,7.3214111328125C16.200489044189453,7.001708984375,16.275196075439453,6.7283935546875,16.424854278564453,6.5015869140625C16.579395294189453,6.2747802734375,16.891407012939453,6.161376953125,17.360401153564453,6.161376953125C17.561573028564453,6.161376953125,17.754932403564453,6.1900634765625,17.940479278564453,6.2464599609375C18.131153106689453,6.3031005859375,18.288379669189453,6.4140625,18.412158966064453,6.5789794921875C18.535938262939453,6.743896484375,18.597705841064453,6.986328125,18.597705841064453,7.305908203125C18.597705841064453,7.4554443359375,18.577198028564453,7.6024169921875,18.536182403564453,7.746826171875C18.500049591064453,7.89111328125,18.414844512939453,8.0328369140625,18.280811309814453,8.172119140625C18.152149200439453,8.31640625,17.963916778564453,8.46337890625,17.716358184814453,8.6129150390625C17.474170684814453,8.75732421875,17.149219512939453,8.909423828125,16.741992950439453,9.0692138671875C15.911913871765137,9.39404296875,15.257372856140137,9.842529296875,14.777880668640137,10.414794921875C14.540575981140137,10.6983642578125,14.355029106140137,11.015380859375,14.220995903015137,11.365966796875C14.086962699890137,11.716552734375,14.020068168640137,12.09033203125,14.020068168640137,12.4871826171875L14.020068168640137,13.7244873046875C14.020068168640137,14.0853271484375,14.117968559265137,14.405029296875,14.313769340515137,14.6834716796875C14.509814262390137,14.9617919921875,14.844775199890137,15.10107421875,15.319140434265137,15.10107421875L19.170215606689453,15.10107421875C19.479541778564453,15.10107421875,19.773487091064453,15.0775146484375,20.051807403564453,15.03125C20.330127716064453,14.9798583984375,20.556934356689453,14.8765869140625,20.732227325439453,14.721923828125C20.907764434814453,14.5621337890625,20.995410919189453,14.3223876953125,20.995410919189453,14.0028076171875C20.995410919189453,13.6883544921875,20.907764434814453,13.456298828125,20.732227325439453,13.3067626953125C20.556934356689453,13.1572265625,20.330127716064453,13.059326171875,20.051807403564453,13.012939453125C19.778614044189453,12.96142578125,19.484668731689453,12.9356689453125,19.170215606689453,12.9356689453125L16.479053497314453,12.9356689453125L16.479053497314453,12.4561767578125C16.479053497314453,12.0281982421875,16.631153106689453,11.682861328125,16.935352325439453,11.419921875C17.244678497314453,11.156982421875,17.587451934814453,10.9508056640625,17.963916778564453,10.80126953125C18.489795684814453,10.610595703125,18.976856231689453,10.352783203125,19.425586700439453,10.0279541015625C19.817188262939453,9.7392578125,20.157520294189453,9.3758544921875,20.446338653564453,8.9376220703125C20.740039825439453,8.4993896484375,20.887012481689453,7.9864501953125,20.887012481689453,7.398681640625C20.887012481689453,6.4346923828125,20.590625762939453,5.6690673828125,19.997852325439453,5.1019287109375C19.703907012939453,4.8236083984375,19.335254669189453,4.6070556640625,18.891895294189453,4.452392578125C18.453662872314453,4.2926025390625,17.943408966064453,4.212646484375,17.360889434814453,4.212646484375Z" style="font-family: Dangrek; white-space: pre; stroke-width: 0.269447; stroke-linecap: round; stroke-linejoin: round; fill: rgb(0, 0, 0);"/></g></g></g></g></g></g></g></g></g></svg>

<svg fill="none" viewBox="0 0 23.999 23.999"><g class="frame-container-wrapper"><g class="frame-container-blur"><g class="frame-container-shadows"><g class="fills"><rect width="23.9987" height="23.9987" class="frame-background" rx="0" ry="0"/></g><g fill="#000" class="frame-children"><path d="M4.4795 8.8599c-.2507 0-.5317.0987-.843.2962-.4253.2962-.638.653-.638 1.0707 0 .2506.0611.5049.1825.763.1289.2582.281.5203.4555.786l1.9136 2.7793-1.9136 2.7564a7.0588 7.0588 0 0 0-.4555.7974c-.1216.2657-.1824.524-.1824.7745 0 .4176.2126.7746.638 1.0707.3112.1974.5922.2961.843.2961.3112 0 .5922-.1252.8427-.3758.2583-.2582.4859-.5505.6834-.877l1.4126-1.9137 1.3667 1.9136c.2353.319.4746.6074.7175.8656.2432.2582.5278.3873.8542.3873.2508 0 .5318-.0986.843-.2961.4253-.2886.638-.6455.638-1.0707 0-.2506-.0647-.5088-.1939-.7745-.1213-.2658-.2695-.5316-.444-.7974l-2.0276-2.7564 2.0276-2.7792a4.2935 4.2935 0 0 0 .4555-.786c.1214-.2733.1824-.5353.1824-.786 0-.41-.2127-.7593-.638-1.0478-.2885-.1975-.577-.2962-.8657-.2962-.3264 0-.6113.1253-.8542.376-.243.2506-.4746.5353-.6948.8542l-1.367 1.9136L6.0057 10.09c-.2051-.319-.4329-.6038-.6834-.8543-.2507-.2506-.5315-.376-.8428-.376ZM17.3604 4.2126c-.5156 0-.959.0596-1.33.1779-.3712.1187-.6856.2733-.9434.464-.263.2012-.472.415-.6265.6418-.1597.2372-.2837.4744-.3711.7115-.0876.2371-.147.4614-.178.6728-.0307.2062-.0461.379-.0461.518 0 .3043.1081.5543.3247.7502.2165.1908.5.2861.8506.2861.2732 0 .5337-.0927.781-.2784.2527-.1856.3789-.464.3789-.835 0-.3198.0747-.5931.2244-.82.1545-.2267.4665-.3401.9355-.3401.2012 0 .3945.0287.58.085.1908.0567.348.1677.4718.3326.1237.1649.1855.4073.1855.727 0 .1494-.0205.2964-.0615.4408-.0362.1443-.1214.286-.2554.4253-.1287.1443-.3169.2913-.5644.4408-.2422.1444-.5672.2965-.9744.4563-.83.3248-1.4846.7733-1.9641 1.3456a3.3158 3.3158 0 0 0-.5569.9512c-.134.3506-.201.7243-.201 1.1212v1.2373c0 .3608.098.6805.2938.959.196.2783.531.4176 1.0053.4176h3.8511c.3093 0 .6033-.0236.8816-.0699.2783-.0513.5051-.1546.6804-.3093.1756-.1598.2632-.3995.2632-.719 0-.3145-.0876-.5466-.2632-.6961-.1753-.1496-.402-.2475-.6804-.2939-.2732-.0515-.5671-.0772-.8816-.0772h-2.6911v-.4795c0-.428.152-.7733.4563-1.0363a3.6687 3.6687 0 0 1 1.0285-.6186 5.9225 5.9225 0 0 0 1.4617-.7733c.3916-.2887.732-.6521 1.0207-1.0904.2937-.4382.4407-.9511.4407-1.539 0-.964-.2964-1.7295-.8891-2.2967-.294-.2783-.6626-.4948-1.106-.6495-.4382-.1598-.9485-.2398-1.531-.2398Z" class="fills" font-family="Dangrek" style="white-space:pre"/></g></g></g></g></svg>
